icons/fill-new-textedit-office-delete-key.svg

<svg xmlns="http://www.w3.org/2000/svg" width="32px" height="32px" viewBox="0 0 32 32" version="1.1">
    <title>fill-new-textedit-office-delete-key</title>
    <g id="fill-new-textedit-office-delete-key" stroke-width="1" fill-rule="evenodd">
        <path d="M29,5 C29.5522847,5 30,5.44771525 30,6 L30,26 C30,26.5522847 29.5522847,27 29,27 L9.02850245,27 C8.6978373,27 8.38855097,26.8365414 8.20227511,26.5633368 L1.38409329,16.5633368 C1.15239641,16.2235147 1.15239641,15.7764853 1.38409329,15.4366632 L8.20227511,5.43666318 C8.38855097,5.16345858 8.6978373,5 9.02850245,5 L29,5 Z M14.2071068,11.7928932 C13.8165825,11.4023689 13.1834175,11.4023689 12.7928932,11.7928932 C12.4023689,12.1834175 12.4023689,12.8165825 12.7928932,13.2071068 L15.5853206,16 L12.7928932,18.7928932 C12.4324093,19.1533772 12.4046797,19.7206082 12.7097046,20.1128994 L12.7928932,20.2071068 C13.1834175,20.5976311 13.8165825,20.5976311 14.2071068,20.2071068 L16.9993206,17.414 L19.7928932,20.2071068 C20.1533772,20.5675907 20.7206082,20.5953203 21.1128994,20.2902954 L21.2071068,20.2071068 C21.5976311,19.8165825 21.5976311,19.1834175 21.2071068,18.7928932 L18.4143206,16 L21.2071068,13.2071068 C21.5675907,12.8466228 21.5953203,12.2793918 21.2902954,11.8871006 L21.2071068,11.7928932 C20.8165825,11.4023689 20.1834175,11.4023689 19.7928932,11.7928932 L16.9993206,14.585 L14.2071068,11.7928932 Z" id="&#24418;&#29366;" />
    </g>
</svg>

<svg xmlns="http://www.w3.org/2000/svg" viewBox="0 0 32 32"><path fill="currentColor" d="M29 5a1 1 0 0 1 1 1v20a1 1 0 0 1-1 1H9.029a1 1 0 0 1-.827-.437l-6.818-10a1 1 0 0 1 0-1.126l6.818-10A1 1 0 0 1 9.03 5zm-14.793 6.793a1 1 0 0 0-1.414 1.414L15.585 16l-2.792 2.793a1 1 0 0 0-.083 1.32l.083.094a1 1 0 0 0 1.414 0L17 17.414l2.794 2.793a1 1 0 0 0 1.32.083l.094-.083a1 1 0 0 0 0-1.414L18.414 16l2.793-2.793a1 1 0 0 0 .083-1.32l-.083-.094a1 1 0 0 0-1.414 0l-2.794 2.792z"/></svg>
